Sweet-Rainbow/icons/weather.svg

<?xml version="1.0" encoding="UTF-8" standalone="no"?>
<!-- Generator: Gravit.io -->

<svg
   xmlns:dc="http://purl.org/dc/elements/1.1/"
   xmlns:cc="http://creativecommons.org/ns#"
   xmlns:rdf="http://www.w3.org/1999/02/22-rdf-syntax-ns#"
   xmlns:svg="http://www.w3.org/2000/svg"
   xmlns="http://www.w3.org/2000/svg"
   xmlns:sodipodi="http://sodipodi.sourceforge.net/DTD/sodipodi-0.dtd"
   xmlns:inkscape="http://www.inkscape.org/namespaces/inkscape"
   style="isolation:isolate"
   viewBox="0 0 36 36"
   width="48"
   height="48"
   version="1.1"
   id="svg23"
   sodipodi:docname="weather.svg"
   inkscape:version="0.92.4 (5da689c313, 2019-01-14)">
  <metadata
     id="metadata29">
    <rdf:RDF>
      <cc:Work
         rdf:about="">
        <dc:format>image/svg+xml</dc:format>
        <dc:type
           rdf:resource="http://purl.org/dc/dcmitype/StillImage" />
        <dc:title></dc:title>
      </cc:Work>
    </rdf:RDF>
  </metadata>
  <defs
     id="defs27" />
  <sodipodi:namedview
     pagecolor="#ffffff"
     bordercolor="#666666"
     borderopacity="1"
     objecttolerance="10"
     gridtolerance="10"
     guidetolerance="10"
     inkscape:pageopacity="0"
     inkscape:pageshadow="2"
     inkscape:window-width="640"
     inkscape:window-height="480"
     id="namedview25"
     showgrid="false"
     inkscape:zoom="29.365243"
     inkscape:cx="25.325443"
     inkscape:cy="32"
     inkscape:current-layer="svg23"
     units="px" />
  <linearGradient
     id="_lgradient_54"
     x1="0"
     y1="0.5"
     x2="1"
     y2="0.5"
     gradientTransform="matrix(29.65,0,0,26.39,17.85,2.5)"
     gradientUnits="userSpaceOnUse">
    <stop
       offset="0%"
       stop-opacity="1"
       style="stop-color:rgb(247,242,6)"
       id="stop2" />
    <stop
       offset="97.82608695652173%"
       stop-opacity="1"
       style="stop-color:rgb(255,187,36)"
       id="stop4" />
  </linearGradient>
  <linearGradient
     id="_lgradient_55"
     x1="0"
     y1="0.5"
     x2="0.90748805"
     y2="0.92007786"
     gradientTransform="matrix(45.002,0,0,32,0.997,10)"
     gradientUnits="userSpaceOnUse">
    <stop
       offset="0%"
       stop-opacity="1"
       style="stop-color:rgb(0,196,255)"
       id="stop9" />
    <stop
       offset="83.88839793817618%"
       stop-opacity="1"
       style="stop-color:rgb(0,114,255)"
       id="stop11" />
  </linearGradient>
  <linearGradient
     id="_lgradient_56"
     x1="0"
     y1="0.5"
     x2="0.90748805"
     y2="0.92007786"
     gradientTransform="matrix(22.953,0,0,11.439,12,34)"
     gradientUnits="userSpaceOnUse">
    <stop
       offset="0%"
       stop-opacity="1"
       style="stop-color:rgb(0,255,216)"
       id="stop16" />
    <stop
       offset="83.88839793817618%"
       stop-opacity="1"
       style="stop-color:rgb(0,255,184)"
       id="stop18" />
  </linearGradient>
  <g
     id="g839"
     transform="matrix(0.77415599,0,0,0.77415599,-0.77240957,-0.556132)">
    <path
       id="path7"
       d="M 21.2,11.71 20.44,13 17.85,11.49 18.61,10.19 C 21.38,5.44 26.49,2.5 32,2.5 c 4.11,0 8.05,1.63 10.96,4.54 2.9,2.91 4.54,6.85 4.54,10.96 0,3.54 -1.21,6.97 -3.44,9.73 l -0.94,1.16 -2.33,-1.88 0.94,-1.17 C 43.52,23.62 44.5,20.85 44.5,18 44.5,14.69 43.18,11.5 40.84,9.16 38.49,6.82 35.31,5.5 32,5.5 c -4.44,0 -8.56,2.37 -10.8,6.21 z"
       style="fill:url(#_lgradient_54)"
       inkscape:connector-curvature="0" />
    <path
       id="path14"
       d="m 38.677,22.57 c 0.014,0.003 0.028,0.006 0.042,0.01 0.68,0.18 1.35,0.42 2,0.71 0.57,0.27 1.12,0.58 1.63,0.95 0.56,0.41 1.07,0.88 1.52,1.41 0.44,0.53 0.82,1.1 1.12,1.72 0.32,0.67 0.57,1.37 0.72,2.09 0.18,0.82 0.28,1.66 0.29,2.51 0.01,0.82 -0.04,1.64 -0.16,2.45 -0.1,0.68 -0.27,1.36 -0.52,2.01 -0.21,0.57 -0.48,1.11 -0.81,1.63 -0.31,0.49 -0.68,0.95 -1.1,1.36 -0.43,0.42 -0.91,0.79 -1.43,1.1 -0.56,0.33 -1.15,0.61 -1.76,0.82 -0.61,0.21 -1.25,0.36 -1.89,0.46 -0.76,0.12 -1.53,0.19 -2.3,0.2 -0.01,0 -0.02,0 -0.03,0 h -7 -2 -9 -7 c -0.01,0 -0.02,0 -0.03,0 -0.8,-0.01 -1.61,-0.08 -2.4,-0.21 -0.67,-0.11 -1.32,-0.28 -1.96,-0.51 -0.57,-0.21 -1.13,-0.48 -1.65,-0.8 -0.5,-0.3 -0.96,-0.66 -1.37,-1.06 -0.44,-0.44 -0.83,-0.92 -1.16,-1.44 -0.34,-0.55 -0.61,-1.14 -0.82,-1.75 -0.22,-0.63 -0.38,-1.27 -0.47,-1.93 -0.1,-0.77 -0.15,-1.55 -0.14,-2.33 0.01,-0.84 0.11,-1.68 0.29,-2.51 0.15,-0.72 0.4,-1.42 0.72,-2.08 0.3,-0.62 0.68,-1.2 1.12,-1.72 0.44,-0.53 0.95,-1 1.51,-1.41 0.52,-0.37 1.07,-0.7 1.66,-0.96 0.65,-0.3 1.33,-0.54 2.03,-0.72 0.005,-0.001 0.01,-0.003 0.015,-0.004 0.703,-3.394 2.502,-6.484 5.125,-8.776 2.78,-2.44 6.35,-3.78 10.04,-3.79 0,0 0,0 0.01,0 v 0 0 c 3.76,0.01 7.38,1.4 10.18,3.91 2.547,2.282 4.294,5.323 4.978,8.66 z M 34.361,22.012 C 34.206,22.005 34.052,22.002 33.899,22 c -1.04,0.11 -2.06,0.31 -3.06,0.59 -0.7,0.2 -1.38,0.49 -2.01,0.86 -0.43,0.24 -0.82,0.54 -1.18,0.87 -0.34,0.31 -0.64,0.67 -0.88,1.06 -0.24,0.38 -0.42,0.78 -0.55,1.21 -0.13,0.43 -0.2,0.88 -0.22,1.33 v 0 c -0.039,1.104 0.824,2.034 1.925,2.075 v 0 c 1.101,0.041 2.031,-0.817 2.075,-1.915 v 0 c 0,-0.12 0.02,-0.24 0.05,-0.35 0.03,-0.08 0.06,-0.16 0.11,-0.23 0.05,-0.09 0.12,-0.17 0.2,-0.24 0.14,-0.14 0.3,-0.25 0.48,-0.35 0.34,-0.2 0.7,-0.36 1.09,-0.47 0.71,-0.2 1.44,-0.35 2.17,-0.44 0.36,0.005 0.717,0.022 1.075,0.048 l 0.005,0.032 0.142,-0.021 c 0.269,0.022 0.537,0.049 0.808,0.081 0.52,0.07 1.04,0.17 1.56,0.31 0.47,0.12 0.93,0.28 1.37,0.49 0.33,0.15 0.65,0.33 0.94,0.54 0.3,0.22 0.57,0.47 0.81,0.75 0.23,0.28 0.43,0.58 0.58,0.9 0.19,0.37 0.32,0.77 0.41,1.17 0.12,0.57 0.19,1.15 0.2,1.73 0.01,0.6 -0.03,1.21 -0.12,1.8 -0.06,0.41 -0.16,0.82 -0.31,1.21 -0.11,0.3 -0.25,0.59 -0.43,0.87 -0.15,0.23 -0.33,0.45 -0.52,0.64 -0.21,0.21 -0.45,0.39 -0.7,0.54 -0.31,0.19 -0.65,0.34 -1,0.46 -0.39,0.14 -0.79,0.24 -1.2,0.3 -0.58,0.09 -1.16,0.14 -1.74,0.15 h -6.98 -9 -2 -6.98 c -0.61,-0.01 -1.21,-0.06 -1.81,-0.16 -0.42,-0.07 -0.83,-0.18 -1.23,-0.32 -0.33,-0.12 -0.64,-0.27 -0.94,-0.45 -0.24,-0.15 -0.46,-0.32 -0.66,-0.52 -0.21,-0.2 -0.39,-0.43 -0.54,-0.68 -0.19,-0.3 -0.34,-0.62 -0.45,-0.95 -0.14,-0.38 -0.23,-0.77 -0.28,-1.17 -0.08,-0.57 -0.12,-1.14 -0.11,-1.72 0.01,-0.58 0.08,-1.16 0.2,-1.72 0.09,-0.41 0.22,-0.8 0.4,-1.18 0.16,-0.32 0.36,-0.62 0.59,-0.89 0.23,-0.28 0.5,-0.54 0.8,-0.75 0.3,-0.22 0.62,-0.41 0.96,-0.56 0.45,-0.2 0.92,-0.37 1.4,-0.49 0.51,-0.14 1.02,-0.24 1.55,-0.3 0.66,-0.08 1.33,-0.13 2,-0.14 0.72,0.09 1.45,0.24 2.15,0.44 0.38,0.1 0.75,0.26 1.1,0.45 0.17,0.11 0.34,0.22 0.49,0.36 0.07,0.07 0.14,0.15 0.2,0.24 0.04,0.08 0.08,0.16 0.1,0.24 0.04,0.11 0.06,0.23 0.06,0.35 v 0 c 0.044,1.098 0.974,1.956 2.075,1.915 v 0 c 1.101,-0.041 1.963,-0.971 1.925,-2.075 v 0 c -0.02,-0.45 -0.09,-0.9 -0.22,-1.34 -0.13,-0.43 -0.32,-0.84 -0.56,-1.22 -0.25,-0.39 -0.55,-0.75 -0.89,-1.06 -0.37,-0.34 -0.77,-0.63 -1.2,-0.88 -0.63,-0.36 -1.3,-0.64 -2,-0.83 -0.99,-0.28 -2,-0.48 -3.03,-0.59 -0.144,0.002 -0.287,0.004 -0.432,0.011 0.643,-2.012 1.831,-3.812 3.432,-5.211 2.05,-1.8 4.69,-2.79 7.41,-2.8 0.01,0 0.01,0 0.01,0 v 0 0 c 0,0 0,0 0,0 h -0.01 c 2.78,0.01 5.46,1.04 7.52,2.89 1.55,1.395 2.705,3.159 3.332,5.122 z"
       style="fill:url(#_lgradient_55);fill-rule:evenodd"
       inkscape:connector-curvature="0" />
    <path
       id="path21"
       d="m 13.57,34.537 -1.436,4.309 c -0.477,1.431 0.36,2.593 1.869,2.593 v 0 c 1.508,0 2.345,-1.162 1.868,-2.593 l -1.436,-4.309 c -0.239,-0.716 -0.626,-0.716 -0.865,0 z m 9.497,4 -1.437,4.309 c -0.477,1.431 0.36,2.593 1.869,2.593 v 0 c 1.508,0 2.345,-1.162 1.868,-2.593 l -1.436,-4.309 c -0.239,-0.716 -0.626,-0.716 -0.864,0 z m 9.452,-4 -1.437,4.309 c -0.477,1.431 0.361,2.593 1.869,2.593 v 0 c 1.508,0 2.345,-1.162 1.868,-2.593 l -1.436,-4.309 c -0.239,-0.716 -0.626,-0.716 -0.864,0 z"
       style="fill:url(#_lgradient_56);fill-rule:evenodd"
       inkscape:connector-curvature="0" />
  </g>
</svg>

<?xml version="1.0" encoding="UTF-8" standalone="no"?><!-- Generator: Gravit.io --><svg xmlns="http://www.w3.org/2000/svg" xmlns:xlink="http://www.w3.org/1999/xlink" style="isolation:isolate" viewBox="0 0 48 48" width="48pt" height="48pt"><linearGradient id="_lgradient_54" x1="0" y1="0.5" x2="1" y2="0.5" gradientTransform="matrix(29.65,0,0,26.39,17.85,2.5)" gradientUnits="userSpaceOnUse"><stop offset="0%" stop-opacity="1" style="stop-color:rgb(247,242,6)"/><stop offset="97.82608695652173%" stop-opacity="1" style="stop-color:rgb(255,187,36)"/></linearGradient><path d=" M 21.2 11.71 L 20.44 13 L 17.85 11.49 L 18.61 10.19 C 21.38 5.44 26.49 2.5 32 2.5 C 36.11 2.5 40.05 4.13 42.96 7.04 C 45.86 9.95 47.5 13.89 47.5 18 C 47.5 21.54 46.29 24.97 44.06 27.73 L 43.12 28.89 L 40.79 27.01 L 41.73 25.84 C 43.52 23.62 44.5 20.85 44.5 18 C 44.5 14.69 43.18 11.5 40.84 9.16 C 38.49 6.82 35.31 5.5 32 5.5 C 27.56 5.5 23.44 7.87 21.2 11.71 Z " fill="url(#_lgradient_54)"/><linearGradient id="_lgradient_55" x1="0" y1="0.5" x2="0.9074880558539661" y2="0.9200778838291643" gradientTransform="matrix(45.002,0,0,32,0.997,10)" gradientUnits="userSpaceOnUse"><stop offset="0%" stop-opacity="1" style="stop-color:rgb(0,196,255)"/><stop offset="83.88839793817618%" stop-opacity="1" style="stop-color:rgb(0,114,255)"/></linearGradient><path d=" M 38.677 22.57 C 38.691 22.573 38.705 22.576 38.719 22.58 C 39.399 22.76 40.069 23 40.719 23.29 C 41.289 23.56 41.839 23.87 42.349 24.24 C 42.909 24.65 43.419 25.12 43.869 25.65 C 44.309 26.18 44.689 26.75 44.989 27.37 C 45.309 28.04 45.559 28.74 45.709 29.46 C 45.889 30.28 45.989 31.12 45.999 31.97 C 46.009 32.79 45.959 33.61 45.839 34.42 C 45.739 35.1 45.569 35.78 45.319 36.43 C 45.109 37 44.839 37.54 44.509 38.06 C 44.199 38.55 43.829 39.01 43.409 39.42 C 42.979 39.84 42.499 40.21 41.979 40.52 C 41.419 40.85 40.829 41.13 40.219 41.34 C 39.609 41.55 38.969 41.7 38.329 41.8 C 37.569 41.92 36.799 41.99 36.029 42 C 36.019 42 36.009 42 35.999 42 L 28.999 42 L 26.999 42 L 17.999 42 L 10.999 42 C 10.989 42 10.979 42 10.969 42 C 10.169 41.99 9.359 41.92 8.569 41.79 C 7.899 41.68 7.249 41.51 6.609 41.28 C 6.039 41.07 5.479 40.8 4.959 40.48 C 4.459 40.18 3.999 39.82 3.589 39.42 C 3.149 38.98 2.759 38.5 2.429 37.98 C 2.089 37.43 1.819 36.84 1.609 36.23 C 1.389 35.6 1.229 34.96 1.139 34.3 C 1.039 33.53 0.989 32.75 0.999 31.97 C 1.009 31.13 1.109 30.29 1.289 29.46 C 1.439 28.74 1.689 28.04 2.009 27.38 C 2.309 26.76 2.689 26.18 3.129 25.66 C 3.569 25.13 4.079 24.66 4.639 24.25 C 5.159 23.88 5.709 23.55 6.299 23.29 C 6.949 22.99 7.629 22.75 8.329 22.57 C 8.334 22.569 8.339 22.567 8.344 22.566 C 9.047 19.172 10.846 16.082 13.469 13.79 C 16.249 11.35 19.819 10.01 23.509 10 C 23.509 10 23.509 10 23.519 10 L 23.519 10 L 23.519 10 C 27.279 10.01 30.899 11.4 33.699 13.91 C 36.246 16.192 37.993 19.233 38.677 22.57 Z  M 34.361 22.012 C 34.206 22.005 34.052 22.002 33.899 22 C 32.859 22.11 31.839 22.31 30.839 22.59 C 30.139 22.79 29.459 23.08 28.829 23.45 C 28.399 23.69 28.009 23.99 27.649 24.32 C 27.309 24.63 27.009 24.99 26.769 25.38 C 26.529 25.76 26.349 26.16 26.219 26.59 C 26.089 27.02 26.019 27.47 25.999 27.92 L 25.999 27.92 C 25.96 29.024 26.823 29.954 27.924 29.995 L 27.924 29.995 C 29.025 30.036 29.955 29.178 29.999 28.08 L 29.999 28.08 C 29.999 27.96 30.019 27.84 30.049 27.73 C 30.079 27.65 30.109 27.57 30.159 27.5 C 30.209 27.41 30.279 27.33 30.359 27.26 C 30.499 27.12 30.659 27.01 30.839 26.91 C 31.179 26.71 31.539 26.55 31.929 26.44 C 32.639 26.24 33.369 26.09 34.099 26 C 34.459 26.005 34.816 26.022 35.174 26.048 L 35.179 26.08 L 35.321 26.059 C 35.59 26.081 35.858 26.108 36.129 26.14 C 36.649 26.21 37.169 26.31 37.689 26.45 C 38.159 26.57 38.619 26.73 39.059 26.94 C 39.389 27.09 39.709 27.27 39.999 27.48 C 40.299 27.7 40.569 27.95 40.809 28.23 C 41.039 28.51 41.239 28.81 41.389 29.13 C 41.579 29.5 41.709 29.9 41.799 30.3 C 41.919 30.87 41.989 31.45 41.999 32.03 C 42.009 32.63 41.969 33.24 41.879 33.83 C 41.819 34.24 41.719 34.65 41.569 35.04 C 41.459 35.34 41.319 35.63 41.139 35.91 C 40.989 36.14 40.809 36.36 40.619 36.55 C 40.409 36.76 40.169 36.94 39.919 37.09 C 39.609 37.28 39.269 37.43 38.919 37.55 C 38.529 37.69 38.129 37.79 37.719 37.85 C 37.139 37.94 36.559 37.99 35.979 38 L 28.999 38 L 19.999 38 L 17.999 38 L 11.019 38 C 10.409 37.99 9.809 37.94 9.209 37.84 C 8.789 37.77 8.379 37.66 7.979 37.52 C 7.649 37.4 7.339 37.25 7.039 37.07 C 6.799 36.92 6.579 36.75 6.379 36.55 C 6.169 36.35 5.989 36.12 5.839 35.87 C 5.649 35.57 5.499 35.25 5.389 34.92 C 5.249 34.54 5.159 34.15 5.109 33.75 C 5.029 33.18 4.989 32.61 4.999 32.03 C 5.009 31.45 5.079 30.87 5.199 30.31 C 5.289 29.9 5.419 29.51 5.599 29.13 C 5.759 28.81 5.959 28.51 6.189 28.24 C 6.419 27.96 6.689 27.7 6.989 27.49 C 7.289 27.27 7.609 27.08 7.949 26.93 C 8.399 26.73 8.869 26.56 9.349 26.44 C 9.859 26.3 10.369 26.2 10.899 26.14 C 11.559 26.06 12.229 26.01 12.899 26 C 13.619 26.09 14.349 26.24 15.049 26.44 C 15.429 26.54 15.799 26.7 16.149 26.89 C 16.319 27 16.489 27.11 16.639 27.25 C 16.709 27.32 16.779 27.4 16.839 27.49 C 16.879 27.57 16.919 27.65 16.939 27.73 C 16.979 27.84 16.999 27.96 16.999 28.08 L 16.999 28.08 C 17.043 29.178 17.973 30.036 19.074 29.995 L 19.074 29.995 C 20.175 29.954 21.037 29.024 20.999 27.92 L 20.999 27.92 C 20.979 27.47 20.909 27.02 20.779 26.58 C 20.649 26.15 20.459 25.74 20.219 25.36 C 19.969 24.97 19.669 24.61 19.329 24.3 C 18.959 23.96 18.559 23.67 18.129 23.42 C 17.499 23.06 16.829 22.78 16.129 22.59 C 15.139 22.31 14.129 22.11 13.099 22 C 12.955 22.002 12.812 22.004 12.667 22.011 C 13.31 19.999 14.498 18.199 16.099 16.8 C 18.149 15 20.789 14.01 23.509 14 C 23.519 14 23.519 14 23.519 14 L 23.519 14 L 23.519 14 C 23.519 14 23.519 14 23.519 14 L 23.509 14 C 26.289 14.01 28.969 15.04 31.029 16.89 C 32.579 18.285 33.734 20.049 34.361 22.012 Z " fill-rule="evenodd" fill="url(#_lgradient_55)"/><linearGradient id="_lgradient_56" x1="0" y1="0.5" x2="0.9074880558539661" y2="0.9200778838291643" gradientTransform="matrix(22.953,0,0,11.439,12,34)" gradientUnits="userSpaceOnUse"><stop offset="0%" stop-opacity="1" style="stop-color:rgb(0,255,216)"/><stop offset="83.88839793817618%" stop-opacity="1" style="stop-color:rgb(0,255,184)"/></linearGradient><path d=" M 13.57 34.537 L 12.134 38.846 C 11.657 40.277 12.494 41.439 14.003 41.439 L 14.003 41.439 C 15.511 41.439 16.348 40.277 15.871 38.846 L 14.435 34.537 C 14.196 33.821 13.809 33.821 13.57 34.537 L 13.57 34.537 Z  M 23.067 38.537 L 21.63 42.846 C 21.153 44.277 21.99 45.439 23.499 45.439 L 23.499 45.439 C 25.007 45.439 25.844 44.277 25.367 42.846 L 23.931 38.537 C 23.692 37.821 23.305 37.821 23.067 38.537 L 23.067 38.537 Z  M 32.519 34.537 L 31.082 38.846 C 30.605 40.277 31.443 41.439 32.951 41.439 L 32.951 41.439 C 34.459 41.439 35.296 40.277 34.819 38.846 L 33.383 34.537 C 33.144 33.821 32.757 33.821 32.519 34.537 Z " fill-rule="evenodd" fill="url(#_lgradient_56)"/></svg>
